X: 1064
T:Rocky Road to Dublin (A27)
N: page A27
N: matches 467
N: heptatonic
R: Slip Jig
M:9/8
L:1/8
K:Ador
"A"efe "D"d2B "A"A2A|"E"E2A "A"A2A "D"Bcd|"A"efe "D"d2B "A"A2c|"Bm"B2A "G#dim"G2A Bcd:|
"E"e2a "A"{b}a2f "G#dim"g2b|"A"e2a "A"{b}a2A "G#dim"Bcd|"A"e2a {b}a2f "G#dim"g2e|\
"D"d2B "G#dim"G2A Bcd|"A"e2a {b}a2f "G#dim"g2d|
"A"e2a a2A "G#dim"Bcd|"A"efg fga gfe|"D"d2B "G#dim"G2A Bcd||\
"A"ecA ecA A2a|ecA ecA "G#dim"Bcd|
